<?xml version="1.0" encoding="UTF-8"?>
<map version="1.10" tiledversion="1.11.2" orientation="orthogonal" renderorder="left-up" width="15" height="10" tilewidth="32" tileheight="32" infinite="0" nextlayerid="5" nextobjectid="4">
 <tileset firstgid="1" source="TestSet.tsx"/>
 <tileset firstgid="5" source="Collision.tsx"/>
 <layer id="1" name="Map" width="15" height="10">
  <data encoding="csv">
2,2,2,2,2,2,2,2,2,2,2,4,2,2,2,
2,1,1,1,1,1,1,1,1,1,1,1,1,1,2,
2,1,1,1,1,1,1,1,1,1,1,1,1,1,2,
2,1,1,1,1,1,1,1,1,1,1,1,1,1,2,
2,1,1,1,1,1,1,1,1,1,1,1,1,1,2,
2,1,1,1,1,1,1,1,1,1,1,1,1,1,2,
2,1,1,1,1,1,1,1,1,1,1,1,1,1,2,
3,1,1,1,1,1,1,1,1,1,1,1,1,1,2,
2,1,1,1,1,1,1,1,1,1,1,1,1,1,2,
2,2,2,2,2,2,2,2,2,2,2,2,2,2,2
</data>
 </layer>
 <layer id="4" name="Collision" width="15" height="10" visible="0">
  <data encoding="csv">
5,5,5,5,5,5,5,5,5,5,5,5,5,5,5,
5,6,6,6,6,6,6,6,6,6,6,6,6,6,5,
5,6,6,6,6,6,6,6,6,6,6,6,6,6,5,
5,6,6,6,6,0,6,6,6,6,6,6,6,6,5,
5,6,6,6,6,6,6,6,6,6,6,6,6,6,5,
5,6,6,6,6,6,6,6,6,6,6,6,6,6,5,
5,6,6,6,6,6,6,6,6,6,6,6,6,6,5,
5,6,6,6,6,6,6,6,6,6,6,6,6,6,5,
5,6,6,6,6,6,6,6,6,6,6,6,6,6,5,
5,5,5,5,5,5,5,5,5,5,5,5,5,5,5
</data>
 </layer>
</map>
